X:5
T:Arscott
T:Mr. W. C. Richards, Schoolmaster, Tetcott, 
T:Sent me, at my request this correction.
%%VWML:SBG-1-1-5-0
F:http://www.vwml.org/record/SBG/1/1/5
Z:Original Sibleius Transcription by Martin and Shan Graebe
L:1/8
M:6/8
I:linebreak $
K:G
z2 z z2 E/ E/ | B B B B B (B/ B/) | c A A A2 B | G G G F G A | B E E E2 d | e e e e g g |$ 
f d d (d/ d/) B | e e e g f e | d B B (B/ A/) G |"^Chorus" B3/2 B/ B d3/2 d/ d | c3/2 A/ A A2 B | 
G3/2 G/ G F3/2 G/ A | B3/2 E/ E E2  |] 

